X: 2144
T: The BRAES OF MARR
C:
Q: "Reel."
R: Reel.
%R: reel
B: James Kerr "Merry Melodies" v.2 p.17 #144
Z: 2016 John Chambers <jc:trillian.mit.edu>
M: C
L: 1/8
K: D
A |\
d3f d/d/d (df) | ebba beec |\
dcde defg | aAAf (e2d) ::\
A |\
FAAc dBAF | GBFA EFGE |\
FAAB ABde | fdgf (e2d) :|

%%sep 1 1 500
%%sep 1 1 500

